!!!OTL: Psallite senes
**kern
*staff1
=1-
*clefF4
*k[b-]
1F
2F\
2F\
=2
2G\
2F\
2F\
2F\
=3
2F\
2D\
2G\
2F\
=4
!!linebreak:original
2C/
2F\
2BB-/
2E-\
=5
2F\
2BB-/
1C
=6
2FF/
2F\
2D\
2G\
!!linebreak:original
=7
2F\
2F\
2D\
2D\
=8
2F\
2C/
1G
=9
2C/
2F\
2E\
2E\
!!linebreak:original
=10
2F\
2D\
2BB-/
2C/
2FF/
2FF/
=11
2C/
2D\
2C/
2FF/
=12
2C/
2D\
2C/
2FF/
!!linebreak:original
=13
!LO:TX:Y=-37:t=P
2C/
2D\
2C/
2FF/
=14
!LO:TX:Y=-201:t=P
2C/
2D\
2C/
2FF/
=15
2C/
2F\
1E-
=16
!LO:TX:Y=-200:t=P
2F\
2BB-/
1C
=17
!LO:TX:Y=-202:t=P
0FF
==
*-
!!title: @{OTL}, @{GTL}, ed. @{ENC}
!!!pag:
!!!GTL: Hymnbook D
!!!EFL: 
!!!YEM: Creative Commons CC/BY/NC/SA 4.0
!!!ENC: Marcin Konik
!!!END: 2015-0m-dd
!!!EED: Marcin Konik
!!!EEV: 
!!!ONB: Encoded in vim by Marcin Konik
!!!CharacterEncoding: utf-8
!!!RDF**kern: l=long note in original notation
!!!RDF**kern: i=editorial accidental
!!muse2ps: z14jc180F
!!!COM: Anonim
!!!CDT: [?]
!!!TXO: Polish
!!!ODT: 
!!!GTL: Hymnbook D
!!!ARL: Opactwo św. Wojciecha, Staniątki 
!!!voices:	1
